X: 13
T: Humours Of Tulla, The
Z: ithaca-markb
S: https://thesession.org/tunes/141#setting48971
R: reel
M: 4/4
L: 1/8
K: Dmaj
|:d2Ad BdAB|(3ddd fd egfe|d2Ad BdAd|faba fe (3eee:|
|:fe (3eee fede|fe (3eee faba|fe (3eee fedB|1 ABde faba:|2 ABde fgaf||

%-------------------- TUNE SEPARATOR --------------------%

